X: 15
T: Fig for a kiss
M:9/8
R:slip jig
K:Edor
"Em"G2B E2B BAG|"D"F2A D2A AGF|"Em"G2B E2B BAG|"G"BdB "D"AGF "Em"E3:|
"Em"g2e g2e edB|"D"~f2d dcd fed|"Em"g2e g2e edB|"G"dBG GBd "Em"e2f|
"Em"g2e g2e edB|"D"~f2d dcd fed|"Em"gfe "D"fed "Em"ege|"G"BdB "D"AGF "Em"E3|]


